X:18938
T:Wullafjord (mazurka)
R:Mazurka
O:England
N:Don't worry about it. Just me being daft.
M:3/4
A:Lancaster
K:D
A2 FA DA| B2 GB EB| A2 FA DA| EF GF ED|\
  A2 FA DA| B2 GB EB| Ac ef (3gfe| f2 d4 :|
|:f2 df Af| ge af ge| f2 df Af| e2 ce Ae|\
  f2 df Af| ge af ge| Ac ef (3gfe| f2 d4 :|


